hi/collection.svg

<svg viewBox="0 0 20 20" fill="none" xmlns="http://www.w3.org/2000/svg" height="1em" width="1em">
  <path d="M7 3C6.44772 3 6 3.44772 6 4C6 4.55228 6.44772 5 7 5H13C13.5523 5 14 4.55228 14 4C14 3.44772 13.5523 3 13 3H7Z" fill="#4A5568"/>
  <path d="M4 7C4 6.44772 4.44772 6 5 6H15C15.5523 6 16 6.44772 16 7C16 7.55228 15.5523 8 15 8H5C4.44772 8 4 7.55228 4 7Z" fill="#4A5568"/>
  <path d="M2 11C2 9.89543 2.89543 9 4 9H16C17.1046 9 18 9.89543 18 11V15C18 16.1046 17.1046 17 16 17H4C2.89543 17 2 16.1046 2 15V11Z" fill="#4A5568"/>
</svg>

<svg viewBox="0 0 20 20" fill="none" xmlns="http://www.w3.org/2000/svg" height="1em" width="1em">
  <path d="M7 3a1 1 0 0 0 0 2h6a1 1 0 1 0 0-2H7ZM4 7a1 1 0 0 1 1-1h10a1 1 0 1 1 0 2H5a1 1 0 0 1-1-1Zm-2 4a2 2 0 0 1 2-2h12a2 2 0 0 1 2 2v4a2 2 0 0 1-2 2H4a2 2 0 0 1-2-2v-4Z" fill="#4A5568"/>
</svg>
